packages/kaspersky-hexa-ui-icons/src/iconsSVGs/16/FontItalic.svg

<svg width="16" height="16" viewBox="0 0 16 16" fill="none" xmlns="http://www.w3.org/2000/svg">
<path d="M11.428 2.00391H6.2862V2.86088H7.25096C7.51935 2.86088 7.72167 3.1048 7.67206 3.36856L5.96478 12.4459C5.88859 12.851 5.53478 13.1445 5.12258 13.1445H4.57227V14.0015H8.85711V13.1445H8.28673C8.01834 13.1445 7.81602 12.9006 7.86563 12.6368L9.57291 3.55944C9.64911 3.15434 10.0029 2.86088 10.4151 2.86088H11.428V2.00391Z" fill="#1D1E20"/>
</svg>

<svg xmlns="http://www.w3.org/2000/svg" width="16" height="16" fill="none" viewBox="0 0 16 16"><path fill="#000" d="M11.428 2.004H6.2862v.8569h.9648a.4284.4284 0 0 1 .421.5077l-1.7072 9.0773a.857.857 0 0 1-.8422.6986h-.5503v.857H8.857v-.857h-.5704a.4285.4285 0 0 1-.421-.5077l1.7072-9.0774a.857.857 0 0 1 .8422-.6985h1.0129z"/></svg>
